cssgg/merge-horizontal.svg

<svg
  width="24"
  height="24"
  viewBox="0 0 24 24"
  fill="none"
  xmlns="http://www.w3.org/2000/svg"
>
  <path
    d="M12 8.9757L16.2426 4.73306L14.8284 3.31885L12 6.14727L9.17157 3.31885L7.75736 4.73306L12 8.9757Z"
    fill="currentColor"
  />
  <path
    d="M5 11.9998C5 11.4475 5.44772 10.9997 6 10.9997H18C18.5523 10.9997 19 11.4475 19 11.9998C19 12.552 18.5523 12.9998 18 12.9998H6C5.44772 12.9998 5 12.552 5 11.9998Z"
    fill="currentColor"
  />
  <path
    d="M12 15.0242L7.75736 19.2668L9.17157 20.681L12 17.8526L14.8284 20.681L16.2426 19.2668L12 15.0242Z"
    fill="currentColor"
  />
</svg>

<svg viewBox="0 0 24 24" xmlns="http://www.w3.org/2000/svg"><g><path d="M12 8.97l4.24-4.25 -1.42-1.42 -2.83 2.82 -2.83-2.83L7.74 4.7l4.24 4.24Z"/><path d="M5 11.99c0-.56.44-1.01 1-1.01h12c.55 0 1 .44 1 1 0 .55-.45 1-1 1H6c-.56 0-1-.45-1-1Z"/><path d="M12 15.02l-4.25 4.24 1.41 1.41 2.82-2.83 2.82 2.82 1.41-1.42 -4.25-4.25Z"/></g></svg>
